icons/haiku.svg

<?xml version="1.0" encoding="UTF-8"?>
<svg width="256px" height="295px" viewBox="0 0 256 295" version="1.1" xmlns="http://www.w3.org/2000/svg" xmlns:xlink="http://www.w3.org/1999/xlink" preserveAspectRatio="xMidYMid">    <defs>
        <linearGradient x1="49.0838061%" y1="4.31143537%" x2="49.0838061%" y2="95.7864712%" id="linearGradient-1">
            <stop stop-color="#F1CB2B" offset="0%"></stop>
            <stop stop-color="#D62B5F" offset="100%"></stop>
        </linearGradient>
        <linearGradient x1="143.212497%" y1="-204.866615%" x2="143.212497%" y2="86.0496667%" id="linearGradient-2">
            <stop stop-color="#F1CB2B" offset="0%"></stop>
            <stop stop-color="#D62B5F" offset="100%"></stop>
        </linearGradient>
    </defs>
    <g>
        <path d="M206.689749,0.891330988 L204.851426,0.238244812 C204.047746,0.0452081177 203.217646,-0.0303020418 202.386693,0.0162313071 C201.084441,0.0890994632 199.815427,0.460513995 198.678514,1.10158332 C186.070192,6.2469274 172.058199,11.9983982 158.113535,17.8613445 C155.600223,18.9178049 155.611303,22.4756459 158.127172,23.5232428 L191.956746,37.6066546 C193.103887,38.0839197 193.850466,39.2046405 193.853022,40.446382 C193.870068,51.526603 194.017508,61.8985967 193.879442,72.9941584 C193.864102,74.2145935 193.125193,75.3088942 192.000211,75.7818981 L102.930609,113.283857 C100.903084,114.136968 98.6607904,112.648072 98.6607904,110.448391 L98.6641994,26.9207738 C98.6641994,23.7162795 96.8710462,21.2804377 94.1787596,19.9229593 C93.9222296,19.7853195 93.6622905,19.6552647 93.3870108,19.5405506 L48.8536585,0.677158267 C47.6531663,0.167507304 46.3516814,-0.059619756 45.0495999,0.013333626 C43.7474331,0.0862017822 42.479442,0.45727541 41.3434658,1.09774815 C29.2233181,6.04426018 14.7551114,12.0127161 1.88551263,17.3930281 C-0.603612449,18.4336365 -0.635273876,21.9438362 1.83223791,23.0346426 L34.9848456,37.6918805 C36.0986631,38.183634 36.8172027,39.2873096 36.8172027,40.5051879 L36.8172027,147.107465 C37.0769713,148.269947 37.5470775,149.26709 38.181073,150.08952 C38.8273411,151.167628 39.8903639,152.116192 41.488776,152.872998 L139.449913,199.490721 L139.977461,199.696967 C141.04108,200.228777 142.241914,200.523659 143.507518,200.523659 L144.076827,200.504057 C146.100943,200.348946 147.990401,199.432767 149.3668,197.941314 C150.743198,196.449008 151.503414,194.492221 151.495743,192.46214 L151.495743,159.570903 C151.495743,158.230299 152.362491,157.044807 153.640027,156.639131 L189.913028,145.111474 C191.897088,144.480803 193.921203,145.962029 193.920351,148.044098 L193.876886,289.432184 C193.876033,290.682448 194.632839,291.809135 195.790207,292.281286 L197.468306,292.966503 C198.007786,293.185533 198.56772,293.349167 199.139586,293.4557 C201.440685,294.241482 203.94718,294.174154 206.202257,293.264793 L250.615185,275.097185 C252.320556,274.351459 253.479628,273.51454 254.206605,272.573646 C255.318803,271.403494 256.003168,269.86261 256.003168,267.656111 L256.003168,26.928359 C256.003168,24.5384539 254.91398,22.5843941 253.250371,21.1886494 C252.531064,20.5118704 251.682214,19.9497202 250.726831,19.5443858 L206.689749,0.891330988 Z" fill="url(#linearGradient-1)"></path>
        <path d="M98.8501243,228.987409 C98.8610713,227.789133 98.1758549,226.693128 97.0943381,226.179216 L47.6643309,202.687545 C46.6946304,202.279313 45.6535107,202.0671 44.6012263,202.063626 C43.548942,202.05943 42.5063734,202.264824 41.5338605,202.666238 C40.5612623,203.068505 39.6780662,203.65912 38.9352371,204.403995 C38.1923228,205.149721 37.6046049,206.034366 37.2059181,207.008499 C37.0456934,207.394572 36.9158943,207.790872 36.8172027,208.193991 L36.8172027,289.418548 C36.8172027,290.645801 37.5463104,291.755443 38.6724856,292.242083 L41.2593478,293.360247 C41.5245708,293.468483 41.7950779,293.563084 42.0700167,293.643197 C44.1769717,294.668464 46.6892612,294.828689 49.0333147,293.873307 L93.0648569,276.3287 C94.6551724,275.674165 96.0162303,274.561114 96.9741695,273.132728 C97.9312565,271.70349 98.4434643,270.022835 98.4451688,268.302123 C98.4681798,268.065195 98.4758501,267.828267 98.4758501,267.587078 L98.8501243,228.987409 Z" fill="url(#linearGradient-2)"></path>
    </g>
</svg>

<svg xmlns="http://www.w3.org/2000/svg" viewBox="0 0 256.003 294.508">
  <defs>
    <linearGradient id="a" x1="134.659" x2="134.659" y1="11.828" y2="262.785" gradientTransform="scale(.93315 1.07164)" gradientUnits="userSpaceOnUse">
      <stop offset="0%" stop-color="#F1CB2B"/>
      <stop offset="100%" stop-color="#D62B5F"/>
    </linearGradient>
    <linearGradient id="b" x1="153.396" x2="153.396" y1="10.383" y2="230.686" gradientTransform="scale(.81916 1.22076)" gradientUnits="userSpaceOnUse">
      <stop offset="0%" stop-color="#F1CB2B"/>
      <stop offset="100%" stop-color="#D62B5F"/>
    </linearGradient>
  </defs>
  <path fill="url(#a)" d="M206.69.891 204.85.238a8.514 8.514 0 0 0-6.172.864c-12.609 5.145-26.62 10.896-40.565 16.76-2.514 1.056-2.503 4.614.013 5.661l33.83 14.084a3.082 3.082 0 0 1 1.896 2.84c.017 11.08.164 21.452.026 32.547A3.067 3.067 0 0 1 192 75.782l-89.07 37.502c-2.027.853-4.27-.636-4.27-2.836l.004-83.527c0-3.205-1.793-5.64-4.485-6.998a8.954 8.954 0 0 0-.792-.382L48.854.677a8.516 8.516 0 0 0-7.51.42A5286.757 5286.757 0 0 0 1.885 17.394c-2.49 1.04-2.521 4.55-.054 5.642l33.153 14.657a3.075 3.075 0 0 1 1.832 2.813v106.602c.26 1.163.73 2.16 1.364 2.983.646 1.078 1.71 2.026 3.308 2.783l97.96 46.618.528.206a7.875 7.875 0 0 0 3.53.827l.57-.02a8.034 8.034 0 0 0 7.419-8.042v-32.891c0-1.34.866-2.526 2.144-2.932l36.273-11.528a3.076 3.076 0 0 1 4.007 2.933l-.043 141.388c-.001 1.25.756 2.377 1.913 2.85l1.678.685c.54.219 1.1.382 1.672.489a10.13 10.13 0 0 0 7.062-.191l44.413-18.168c1.706-.746 2.865-1.582 3.592-2.523 1.112-1.17 1.796-2.711 1.796-4.918V26.928c0-2.39-1.09-4.344-2.753-5.74a8.553 8.553 0 0 0-2.523-1.644z" style="fill:url(#a)"/>
  <path fill="url(#b)" d="M98.85 228.987a3.078 3.078 0 0 0-1.756-2.808l-49.43-23.491a7.962 7.962 0 0 0-10.458 4.32c-.16.387-.29.783-.389 1.186v81.225c0 1.227.73 2.336 1.855 2.823l2.587 1.118c.266.108.536.203.811.283a8.512 8.512 0 0 0 6.963.23l44.032-17.544a8.692 8.692 0 0 0 5.38-8.027c.023-.237.03-.474.03-.715z" style="fill:url(#b)"/>
</svg>
